src/components/Icon/svg-icon/main/message-bubble.svg

<svg xmlns="http://www.w3.org/2000/svg" width="24" height="24"><path fill="#677078" d="M20 2H4c-1.1 0-1.99.9-1.99 2L2 22l4-4h14c1.1 0 2-.9 2-2V4c0-1.1-.9-2-2-2zm-2 12H6v-2h12v2zm0-3H6V9h12v2zm0-3H6V6h12v2z"/></svg>

<svg xmlns="http://www.w3.org/2000/svg" width="24" height="24" viewBox="0 0 24 24">
  <path fill="#677078" d="M20,2 L4,2 C2.9,2 2.01,2.9 2.01,4 L2,22 L6,18 L20,18 C21.1,18 22,17.1 22,16 L22,4 C22,2.9 21.1,2 20,2 Z M18,14 L6,14 L6,12 L18,12 L18,14 Z M18,11 L6,11 L6,9 L18,9 L18,11 Z M18,8 L6,8 L6,6 L18,6 L18,8 Z"/>
</svg>
